X:1040
T:The Iron Chest.
M:2/4
L:1/16
Q:1/4=104
I: :: ::
Z:Jack Campin * www.campin.me.uk * 2009
K:C
 e2``e2  (fe)(dc)| c2``c2   cBAG   |(EG).B.e (FA).c.f|(ag).f.e (cB).A.G|
 e2``e2   fedc   | c2``c2   cBAG   | EGBe     FAdf   | fdcB     c4    :|
(ec).e.g (ge).d.B|(dB).d.e (fd).c.B|(EG).B.e (FA).c.f|(fd).c.B (cB).A.G|
(ec).e.g (ge).d.c|(dB).d.e (fd).c.B|(EG).B.e (FA).c.f|fdcB      c4    :|

